material/.icons/material/account-outline.svg

<svg xmlns="http://www.w3.org/2000/svg" viewBox="0 0 24 24"><path d="M12 4a4 4 0 014 4 4 4 0 01-4 4 4 4 0 01-4-4 4 4 0 014-4m0 2a2 2 0 00-2 2 2 2 0 002 2 2 2 0 002-2 2 2 0 00-2-2m0 7c2.67 0 8 1.33 8 4v3H4v-3c0-2.67 5.33-4 8-4m0 1.9c-2.97 0-6.1 1.46-6.1 2.1v1.1h12.2V17c0-.64-3.13-2.1-6.1-2.1z"/></svg>

<?xml version="1.0" encoding="UTF-8"?><!DOCTYPE svg PUBLIC "-//W3C//DTD SVG 1.1//EN" "http://www.w3.org/Graphics/SVG/1.1/DTD/svg11.dtd"><svg xmlns="http://www.w3.org/2000/svg" xmlns:xlink="http://www.w3.org/1999/xlink" version="1.1" id="mdi-account-outline" width="24" height="24" viewBox="0 0 24 24"><path d="M12,4A4,4 0 0,1 16,8A4,4 0 0,1 12,12A4,4 0 0,1 8,8A4,4 0 0,1 12,4M12,6A2,2 0 0,0 10,8A2,2 0 0,0 12,10A2,2 0 0,0 14,8A2,2 0 0,0 12,6M12,13C14.67,13 20,14.33 20,17V20H4V17C4,14.33 9.33,13 12,13M12,14.9C9.03,14.9 5.9,16.36 5.9,17V18.1H18.1V17C18.1,16.36 14.97,14.9 12,14.9Z" /></svg>
